X:22
T:Pretty Witch of Lancaster,The JBi.22
M:C|
L:1/8
Q:1/2=90
S:James Biggins MS, Leeds, 1779.
R:.Reel
O:England
A:Yorkshire
N:Triplets not marked so in MSâ€¦.CGP
Z:vmp.Nick Barber&Chris Partington..
K:F
A|F>GFA cdfd|cAfA G/G/GG2|!
F>GFA cdfd|cAfA F/F/F â€œ^cr in MSâ€F||!
(f/g/)|agfd fdcA|FAfA G/G/G G(f/g/)|!
((3agf) ((3gfe) ((3fdc) ((3dcA)|FAfA F/F/F â€œ^crâ€F|]

